X:1
T:No Dying There
T:Francis Augustus Blackmer, 1892
T:No Dying There
T:Public Domain
C:Francis Augustus Blackmer, 1892
Z:Public Domain
%%score ( 1 2 ) ( 3 4 )
L:1/8
M:2/4
K:Bb
V:1 treble 
V:2 treble 
V:3 bass 
V:4 bass 
V:1
 [DF]2 [EG][DF] | [DF][CE] [CE]2 | [EG]2 [EA][EG] | [EG][DF] [DF]2 | [Fd]2 [Fc][FB] | %5
w: 1.~A land by|faith I see,|Where saints shall|ev- er be,|Free from mor-|
w: 2.~There friends shall|meet a- gain,|In hap- pi-|ness to reign,|While through that|
w: 3.~There sor- row|can- not stay;|There tears are|wiped a- way,|One bright, e-|
 [FA][EG] [EG]2 | (FB) [CA]<[Ec] | [DB]3 ||"^Refrain" [DF] | [EG]2 [EG]2 | D3 D | E2 E2 | %12
w: tal- i- ty,|No * dy- ing||||||
w: blest do- main,|No * dy- ing|No|dy-|ing there,|~ ~|dy- ing|
w: tern- al day,|No * dy- ing||||||
 [DF]3 [DB] | [Ec]2 [Ec]2 | D3 D | E2 E2 | [DB]3 z |] %17
w: |||||
w: there. *|||||
w: |||||
V:2
 x4 | x4 | x4 | x4 | x4 | x4 | D2 x2 | x3 || x | x4 | F4- | F4- | x4 | x4 | B4- | B4- | x4 |] %17
w: ||||||there.|||||||||||
w: ||||||there.||||No|||||||
w: ||||||there.|||||||||||
V:3
 [B,,B,]2 [B,,B,][B,,B,] | [F,B,][F,A,] [F,A,]2 | [F,A,]2 [F,A,][F,A,] | [B,,B,][B,,B,] [B,,B,]2 | %4
w: ~ ~ ~|~ ~ ~|~ ~ ~|~ ~ ~|
 [B,,B,]2 [C,A,][D,B,] | [E,B,][E,B,] [E,B,]2 | (B,F,) F,<F, | [B,,F,]3 || z | z4 | z3 [B,,B,] | %11
w: In that fair,|heav’n- ly land,|No * dy- ing|ing|||there|
 [F,C]2 [F,C]2 | [B,,C]3 z | z4 | z3 [B,,F,] | [B,,G,]2 [B,,G,]2 | [B,,F,]3 z |] %17
w: No dy-|ing||there.|||
V:4
 x4 | x4 | x4 | x4 | x4 | x4 | F,2 F,<F, | x3 || x | x4 | x4 | x4 | x4 | x4 | x4 | x4 | x4 |] %17
w: ||||||there No dy-|||||||||||

